X: 2118
T: Peter Street
B: nick
B: to learn
M:4/4
R: reel
Q: 1/4=100
K:Amajor
V:1 
EFG|:"A"A2 (3cBA eA (3cBA|eAaA gAfA|A2 (3cBA eA (3cBA|"E7"BEdE cEBE|
 "A"A2 (3cBA eA (3cBA|eAaA gAfA|ecef afec|1 "E7"BABc "A"A2FG:|2 "E7"BABc "A"A2GF||
 |:"E7"E2 (3GFE BE (3GFE|BEdE cEBE|"A"A2 (3cBA eA (3cBA|eAaA gAfA|
 efec "D"agaf|"A"efec "D"agaf|"A"ecag "D"fedc|1 "Bm"BAGF "E7"EDCD:|2 "E7"BABc "A"A4||
% abcbook-tune_id 6345621f93d7e0e2e1189ba6
% abcbook-link-0 https://www.youtube.com/watch?v=a20PKcJWTc4
% abcbook-link-title-0 Day  68  -  Peter Street  - Fergal&#39;s Tune a day 2019

% abcbook-boost 0
% abcbook-tablature 
% abcbook-transpose 
% abcbook-lastupdated 1666790128890
% abcbook-soundfonts 
% abcbook-repeats 3


